X:15
T:House Of Gold, A
C:Hank Williams
N:Transcribed by John Gardinsky
R:bluegrass
L:1/8
Q:1/4=128
M:4/4
K:D
z8 | z2 F2 A,B, D2 | (3"D"[AF][AF][AF] (3[AF][AF][AF] (3[AF][AF][AF] (3[AF][AF][AF] | 
[A2F2] F2 "G"ED B,2 | "D"(3[DA,][DA,][DA,] (3[DA,][DA,][DA,] (3[DA,][DA,][DA,] (3[DA,][DA,][DA,] | 
[D2A,2] D2 FE D2 | (3[dA][dA][dA] (3[dA][dA][dA] (3[dA][dA][dA] (3[dA][dA][dA] | 
[d2A2] A2 FE D2 | (3"D"[AF][AF][AF] (3[AF][AF][AF] (3[AF][AF][AF] (3[AF][AF][AF] | 
[A2F2] A2 A2 B2 | (3"G"[gd][gd][gd] (3[gd][gd][gd] (3[gd][gd][gd] (3[gd][gd][gd] | 
[g2d2] dd AB G2 | (3"D"[dA][dA][dA] (3[dA][dA][dA] (3[dA][dA][dA] (3[dA][dA][dA] | 
[d2A2] F2 A,B, D2 | (3"A"[AE][AE][AE] (3[AE][AE][AE] (3[AE][AE][AE] (3[AE][AE][AE] | 
[A2E2] FE DA, B,2 | "D"(3[FD][FD][FD] (3[FD][FD][FD] (3[FD][FD][FD] (3[FD][FD][FD] | 
[F8D8] | 

